X: 1284
T: Köşküm Var Deryaya Karşı
C: (Anonim)
O: Turkey
F: http://compmusic.upf.edu/node/140
N: huseyni--turku--sofyan--koskum_var--
N: makam= huseyni
N: form= turku
N: usul= sofyan = 4/4
M: 4/4
L: 1/16
K: C _2/4B ^3/4f  
Q: 1/4=72
%%MIDI tuningsystem comma53
A2G2 e2de d2cd c2B2  | A2G2 e2de d2cd c2B2  | \
w:  ARANAĞME  |   | 
A2G2 =fede d2cd c2_1/4B2  | 
w:   | 
c3/2B/Ac B3/2A/GB AGA_1/4B cde=f  | \
w:   | 
edcd eg=fe e4 c2d2  | 
w:  *  *  *  *  *  *  *  *  *  Köş küm   | 
e4 e2=f2 e2f2 e2fg  | =fed2 d4 e8  | \
w:  var  der  |  *  *  *  ya ya   | 
=f3e d2e2 d2c2 e2d2  | 
w:  kar  | 
{e}dcc14  | c2_3/4d2 e3d c4 d3c  | _1/4B2c2 B2c2 _3/4d2{e}dc c4  | \
w:  *  şı    |  Dur *  *  *  maz_ a  |  *  *  *  *  *  *  *  *  kar   | 
c7_3/4d cBBA G4  | 
w:  *  *  *  *  *  *  gö  | 
A8 g6=f2  | =f2e2 g2fe {f}e8  | ede=f edcB AGA_1/4B cdef  | 
w:  züm  ya  |  *  *  *  *  *  *  şı    |  SAZ  | 
edcd eg=fe e4 c2d2  | e4 e2=f2 e2f2 e2fg  | \
w:  *  *  *  *  *  *  *  *  Ah  sev da  |  dır  her   | 
=fed2 d4 e8  | 
w:  *  *  *  i şin   | 
=f3e d2e2 d2c2 e2d2  | dc{d}c14  | c2d2 e3d c4 _3/4d3c  | \
w:  ba  |  şı    |  Var  *  *  *  gö nül   | 
_1/4B2c2 B2c2 _3/4d2dc c4  | 
w:  *  *  *  *  *  *  *  var   | 
c7_3/4d cBBA G4  | A8 A3G A2_1/4B2  | \
w:  *  *  *  *  *  *  git   |  sey rey *  le  A  | 
c6d2 e6=fe  | d4 g4 g2=f2 e2d2  | 
w:  man  a man  a  |  man  *  gel   | 
d4 c2BA _1/4B2c2 B2d2  | c2_1/4B2 cBA6 A4  | \
w:  ba na   |  *  *  söy  | 
e4 d2c_1/4B A8  | A2G2 e2de d2cd c2B2  | 
w:  *  le    |  ARANAĞME  | 
A2G2 e2de d2cd c2B2  | A2G2 =fede d2cd c2_1/4B2  | 
w:   |   | 
c3/2B/Ac B3/2A/GB AGA_1/4B cde=f  | \
w:   | 
edcd eg=fe e4 c2d2  | 
w:  *  *  *  *  *  *  *  *  *  Köş küm   | 
e4 e2=f2 e2f2 e2fg  | =fed2 d4 e8  | \
w:  var  der  |  *  *  *  ya ya   | 
=f3e d2e2 d2c2 e2d2  | 
w:  kar  | 
{e}dcc14  | c2_3/4d2 e3d c4 d3c  | _1/4B2c2 B2c2 _3/4d2{e}dc c4  | \
w:  *  şı    |  Dur *  *  *  maz_ a  |  *  *  *  *  *  *  *  *  kar   | 
c7_3/4d cBBA G4  | 
w:  *  *  *  *  *  *  gö  | 
A8 g6=f2  | =f2e2 g2fe {f}e8  | ede=f edcB AGA_1/4B cdef  | 
w:  züm  ya  |  *  *  *  *  *  *  şı    |  SAZ  | 
edcd eg=fe e4 c2d2  | e4 e2=f2 e2f2 e2fg  | \
w:  *  *  *  *  *  *  *  *  Ah  sev da  |  dır  her   | 
=fed2 d4 e8  | 
w:  *  *  *  i şin   | 
=f3e d2e2 d2c2 e2d2  | dc{d}c14  | c2d2 e3d c4 _3/4d3c  | \
w:  ba  |  şı    |  Var  *  *  *  gö nül   | 
_1/4B2c2 B2c2 _3/4d2dc c4  | 
w:  *  *  *  *  *  *  *  var   | 
c7_3/4d cBBA G4  | A8 A3G A2_1/4B2  | \
w:  *  *  *  *  *  *  git   |  sey rey *  le  A  | 
c6d2 e6=fe  | d4 g4 g2=f2 e2d2  | 
w:  man  a man  a  |  man  *  gel   | 
d4 c2BA _1/4B2c2 B2d2  | c2_1/4B2 cBA6 A4  | \
w:  ba na   |  *  *  söy  | 
e4 d2c_1/4B A8  | |


